X:1
T:Jurassic Park Theme (ballade)
T:John Williams
T:http://julienv.be
T:http://julienv.be
Z:http://julienv.be
%%score { 1 | 2 }
L:1/8
Q:1/4=90
M:4/4
K:D
V:1 treble nm="Piano" snm="Pno."
V:2 bass 
V:1
 z6 dc |"D" d2 A2 z2 dc |"G" d2 B2 z2 dc |"D" d3 e"A" e3 g |"G" g4 z2 fd |"A" e2 c2"D" A2 fd | %6
"A" e2 c2"D" A2 ad |"G" g3 f"D/A" f2 ed |"A" e6 dc ||"D" d2 A2"G" G2 dc |"D" d2 A2"G" G2 dc | %11
"D" d2 A2 F2 D2 |"C/G" [EG=c]3 [DGB]"G" [DGB]2 d^c |"D" d3 e"A" e3 g |"G" g4 z2 fd | %15
"A" e2 c2"D" A2 fd |"A" e2 c2"D" A2 ad |"G" g3 f"D/A" f2 ed |"A" e6 dc |"D" d2- [FAd]4 [FAd]2 | %20
"D" [FAd]8 |]"^Accompagnement" z6 dc |"D" [Fd]2 [FA]2 [FA]2 [F-d][Fc] | %23
"G" [GBd]2 [GB]2 [GB]2 [G-d][Gc] |"D" [FAd]3 [Ace]"A" [Ace]4 |"G" [Bdg]4 z2 [Bf]d | %26
"A" [Ace]2 [Ace]2"D" [Adf]2 [Adf]2 |"A" [Ace]2 [Ace]2"D" [Adf]2 [Adf]2 | %28
"G" [Bdg]3 [Adf]"D/A" [Adf]2 [A-e][Ad] |"A" [Ace]6 dc |"D" d2 [FA]2"G" [DGB]2 [DGB]2 | %31
"D" d2 [FA]2"G" [DGB]2 [DGB]2 |"D" [Ad]2 [FA]2 [DF]2 [FA]2 |"C/G" [EG=c]3 [DGB]"G" [DGB]4 | %34
"D" [FAd]3 [FAd]"A" [Ace]4 |"G" [Bdg]6 [Bf]d |"A" [Ace]2 [Ace]2"D" [Adf]2 [Adf]2 | %37
"A" [Ace]2 [Ace]2"D" [Adf]2 [Adf]2 |"G" [Bdg]3 [Adf]"D/A" [Adf]2 [A-e][Ad] |"A" [Ace]6 [A-d][Ac] | %40
"D" [Fd-]2 [FAd-]2 [FAd]2 [FAd]2 |"D" [FAd]8 |] %42
V:2
 z8 | D,A,DA, D,A,DA, | G,,D,G,D, G,,D,G,D, | D,A,DA, A,,E,A,E, | G,,D,G,D, G,,D,G,D, | %5
 A,,E,A,E, D,A,DA, | A,,E,A,E, D,A,DA, | G,,D,G,D, A,,D,F,D, | A,,C,E,C, A,,C,E,C, || %9
 D,A,DA, G,,D,G,D, | D,A,DA, G,,D,G,D, | D,A,DA, D,A,DA, | G,,D,G,D, G,,D,G,D, | %13
 D,A,DA, A,,E,A,E, | G,,D,G,D, G,,D,G,D, | A,,E,A,E, D,A,DA, | A,,E,A,E, D,A,DA, | %17
 G,,D,G,D, A,,D,F,D, | A,,C,E,C, A,,C,E,C, | D,A,DA, D,A,DA, | [D,A,D]8 |] z8 | D,A,DA, D,A,DA, | %23
 G,,D,G,D, G,,D,G,D, | D,A,DA, A,,E,A,E, | G,,D,G,D, G,,D,G,D, | A,,E,A,E, D,A,DA, | %27
 A,,E,A,E, D,A,DA, | G,,D,G,D, A,,D,F,D, | A,,C,E,C, A,,C,E,C, | D,A,DA, G,,D,G,D, | %31
 D,A,DA, G,,D,G,D, | D,A,DA, D,A,DA, | G,,D,G,D, G,,D,G,D, | D,A,DA, A,,E,A,E, | %35
 G,,D,G,D, G,,D,G,D, | A,,E,A,E, D,A,DA, | A,,E,A,E, D,A,DA, | G,,D,G,D, A,,D,F,D, | %39
 A,,C,E,C, A,,C,E,C, | D,A,DA, D,A,DA, | [D,A,D]8 |] %42

